client/public/img/misc/mwheeldown_icon.svg

<?xml version="1.0" encoding="UTF-8" standalone="no"?>
<svg
   width="11"
   height="26"
   viewBox="0 0 11 26"
   fill="none"
   version="1.1"
   id="svg7"
   xmlns="http://www.w3.org/2000/svg"
   xmlns:svg="http://www.w3.org/2000/svg">
  <defs
     id="defs7" />
  <path
     d="M0.332449 21.4033L1.14212 21.1465C1.34064 21.7911 1.63212 22.4199 2.00227 22.9869L1.19892 23.3193C1.13141 23.3553 1.09601 23.3604 1.03945 23.2554L0.277948 21.5538C0.24193 21.4612 0.24516 21.428 0.332449 21.4033Z"
     fill="#333333"
     id="path1" />
  <path
     d="M0.172408 18.4199H0.857133C0.844554 18.7023 0.839593 18.9777 0.839593 19.226C0.839593 19.8012 0.928698 20.4013 1.09608 20.9913L0.277883 21.0713C0.203296 21.0781 0.169267 21.0699 0.167153 20.9635L0.059323 18.5411C0.0566625 18.4562 0.0748755 18.4244 0.172408 18.4199Z"
     fill="#333333"
     id="path2" />
  <path
     d="M10.0465 14.364C10.1476 15.0362 10.2545 15.7476 10.4178 16.4755H6.80225V9.67578C9.39296 10.0172 9.68133 11.9351 10.0465 14.364Z"
     fill="#333333"
     id="path3" />
  <path
     d="M6.52813 9.64676V16.4759H5.29443V9.64676C5.48798 9.63042 5.69332 9.62207 5.9113 9.62207C6.12925 9.62207 6.33459 9.63042 6.52813 9.64676Z"
     fill="#FF0000"
     id="path4" />
  <path
     d="M5.02036 9.67578V16.4755H1.40479C1.56806 15.7476 1.67502 15.0362 1.77609 14.364C2.14128 11.9351 2.42965 10.0172 5.02036 9.67578Z"
     fill="#333333"
     id="path5" />
  <path
     d="M10.499 16.8185C10.4933 16.7957 10.4877 16.7728 10.4821 16.75H1.34082L1.33892 16.7578C1.3356 16.7714 1.33226 16.785 1.3289 16.7986L1.32395 16.8185C1.16133 17.4726 1.11377 18.4642 1.11377 19.2262C1.11377 21.8699 3.09344 25.11 5.91504 25.1117C8.73663 25.11 10.7092 21.8699 10.7092 19.2262C10.7092 18.4642 10.6616 17.4726 10.499 16.8185Z"
     fill="#333333"
     id="path6" />
  <rect
     width="2.95263"
     height="3.02226"
     transform="matrix(1 0 0 -1 4.43506 8.25195)"
     fill="#FF0000"
     id="rect6" />
  <path
     d="M2.26465 5.22949H9.5585L5.91158 0.112275L2.26465 5.22949Z"
     fill="#FF0000"
     id="path7" />
</svg>

<svg xmlns="http://www.w3.org/2000/svg" width="11" height="26" fill="none"><path fill="#333" d="m.332 21.403.81-.256a7.3 7.3 0 0 0 .86 1.84l-.803.332c-.068.036-.103.041-.16-.064l-.761-1.701c-.036-.093-.033-.126.054-.15m-.16-2.984h.685c-.012.282-.017.558-.017.806 0 .575.089 1.175.256 1.765l-.818.08c-.075.007-.109-.001-.11-.108l-.109-2.422c-.002-.085.016-.117.113-.121m9.875-4.056c.1.672.207 1.384.37 2.111H6.803v-6.8c2.591.342 2.88 2.26 3.245 4.689"/><path fill="red" d="M6.528 9.647v6.829H5.294v-6.83a7 7 0 0 1 .617-.024q.327 0 .617.025"/><path fill="#333" d="M5.02 9.676v6.8H1.405c.163-.728.27-1.44.371-2.112.365-2.429.654-4.347 3.244-4.688m5.479 7.143-.017-.069H1.341l-.002.008-.01.04-.005.02c-.163.655-.21 1.646-.21 2.408 0 2.644 1.98 5.884 4.801 5.886 2.822-.002 4.794-3.242 4.794-5.886 0-.762-.047-1.753-.21-2.407"/><path fill="red" d="M4.435 8.252h2.953V5.23H4.435zM2.265 5.23h7.294L5.912.111z"/></svg>
